X:502
T: Maidilei
N: C1921
O: China, Hebei Zhuoxian Xiongxian Baoding
S: IV, 39]
R: Xiaodiao]
M: 3/4
L: 1/16
K: A
e4 | a4a4e2e2 | c4z4b4 | b2e2c2b2b2f2 | a4
z2b2a2b2 | c2e2c2b2 | a2e2f2a2 | e4z4c2e2 | c4z4

